src/assets/icons/twitter.svg

<svg width="32" height="32" viewBox="0 0 32 32" fill="none" xmlns="http://www.w3.org/2000/svg">
<rect opacity="0.2" width="32" height="32" rx="8" fill="#819EB0"/>
<path d="M22.3553 12.7386C22.3655 12.8807 22.3655 13.0228 22.3655 13.165C22.3655 17.5 19.066 22.4949 13.0355 22.4949C11.1777 22.4949 9.45178 21.9568 8 21.0228C8.26397 21.0533 8.51775 21.0634 8.79188 21.0634C10.3248 21.0634 11.736 20.5457 12.8629 19.6624C11.4213 19.632 10.2132 18.6878 9.79694 17.3883C10 17.4187 10.203 17.4391 10.4162 17.4391C10.7107 17.4391 11.0051 17.3984 11.2792 17.3274C9.77666 17.0228 8.64972 15.703 8.64972 14.1091V14.0685C9.08625 14.3122 9.59391 14.4645 10.1319 14.4847C9.24869 13.8959 8.67003 12.8908 8.67003 11.7538C8.67003 11.1447 8.83244 10.5863 9.11672 10.099C10.7309 12.0888 13.1573 13.3883 15.8781 13.5304C15.8274 13.2868 15.7969 13.033 15.7969 12.7792C15.7969 10.9721 17.2588 9.5 19.0761 9.5C20.0202 9.5 20.873 9.89594 21.472 10.5355C22.2131 10.3934 22.9238 10.1193 23.5533 9.74366C23.3096 10.5051 22.7918 11.1447 22.1116 11.5508C22.7715 11.4797 23.4111 11.2969 23.9999 11.0432C23.5533 11.6929 22.9949 12.2715 22.3553 12.7386V12.7386Z" fill="white"/>
</svg>

<svg width="32" height="32" fill="none" xmlns="http://www.w3.org/2000/svg"><rect opacity=".2" width="32" height="32" rx="8" fill="#819EB0"/><path d="M22.355 12.739c.01.142.01.284.01.426 0 4.335-3.299 9.33-9.33 9.33A9.267 9.267 0 0 1 8 21.023c.264.03.518.04.792.04a6.567 6.567 0 0 0 4.07-1.4 3.285 3.285 0 0 1-3.065-2.275c.203.03.406.051.62.051.294 0 .588-.04.862-.112a3.28 3.28 0 0 1-2.63-3.218v-.04a3.3 3.3 0 0 0 1.483.416 3.277 3.277 0 0 1-1.462-2.731c0-.61.162-1.168.447-1.655a9.32 9.32 0 0 0 6.761 3.431 3.705 3.705 0 0 1-.081-.75 3.278 3.278 0 0 1 3.28-3.28c.943 0 1.796.396 2.395 1.036a6.456 6.456 0 0 0 2.081-.792 3.27 3.27 0 0 1-1.441 1.807c.66-.071 1.3-.254 1.888-.508a7.05 7.05 0 0 1-1.645 1.696z" fill="#fff"/></svg>
